X:1
T:[ID 1-93a]
T:[ID 1-93a]
T:Bezeichnung standardisiert: Menuett Men:
T:Urheber unbekannt Datum in der hier transkribierten schriftlichen Quelle: vermutlich vor 1767
C:Urheber unbekannt
C:Datum in der hier transkribierten schriftlichen Quelle: vermutlich vor 1767
L:1/8
M:3/4
K:G
V:1 treble 
V:1
 g2 g2 g2 | fe d4 | e2 e2 e2 | dc B4 |"^O)" AB{B} c4 | DFAcfa |"^O)" AB{B} c4 | DFAcfa | AcBAGF | %9
 G6 :: d2 d2 d2 | ^cB A4 | B2 B2 B2 | AG F4 |"^O)" ef{f} g4 | A^cegfa |"^O)" ef{f} g4 | A^cegfa | %18
 egfed^c | d6 :| %20

